public/menuicons/icocontacto.svg

<svg width="30" height="30" viewBox="0 0 30 30" fill="none" xmlns="http://www.w3.org/2000/svg">
<g id="icocontacto">
<g id="GroupicContacto">
<path id="Vector" d="M16.158 21.893C15.1585 21.8937 14.1813 21.5979 13.35 21.043C12.5187 20.488 11.8707 19.6989 11.4881 18.7756C11.1054 17.8522 11.0053 16.8361 11.2004 15.8558C11.3328 15.1911 11.5968 14.563 11.9736 14.0073C12.2711 13.5685 12.888 13.5724 13.2629 13.9471V13.9471C13.6382 14.3221 13.6215 14.9274 13.377 15.3983C13.1476 15.8402 13.0247 16.3346 13.0246 16.8417C13.0245 17.6728 13.3546 18.4698 13.9421 19.0574C14.5297 19.6451 15.3266 19.9753 16.1576 19.9754C16.9887 19.9755 17.7857 19.6454 18.3733 19.0579L24.1623 13.2689C24.7499 12.6813 25.08 11.8842 25.08 11.0532C25.0799 10.2221 24.7498 9.4251 24.1621 8.83748C23.5744 8.24985 22.7774 7.91975 21.9463 7.91979C21.4389 7.91981 20.9441 8.04292 20.502 8.27258C20.0315 8.51695 19.4267 8.53377 19.0519 8.15891V8.15891C18.677 7.78406 18.6732 7.1671 19.1121 6.86976C19.9426 6.30705 20.9286 6.00003 21.9463 6C22.6099 5.99998 23.2671 6.13066 23.8802 6.3846C24.4933 6.63853 25.0503 7.01073 25.5196 7.47996C25.9889 7.94919 26.3611 8.50625 26.6151 9.11933C26.8691 9.73242 26.9998 10.3895 26.9998 11.0531C26.9998 11.7167 26.8691 12.3739 26.6152 12.987C26.3613 13.6001 25.9891 14.1572 25.5198 14.6264L19.7309 20.4153C19.2621 20.8849 18.7051 21.2571 18.0919 21.5107C17.4787 21.7643 16.8215 21.8942 16.158 21.893Z" fill="white"/>
<path id="Vector_2" d="M8.0537 24.2086C7.05433 24.209 6.07728 23.913 5.24619 23.358C4.41509 22.803 3.76728 22.0139 3.38474 21.0907C3.00219 20.1674 2.9021 19.1514 3.09711 18.1713C3.29213 17.1911 3.7735 16.2908 4.48031 15.5843L10.2692 9.79538C10.7378 9.3232 11.295 8.94819 11.9089 8.69185C12.5227 8.43552 13.1811 8.30292 13.8464 8.30164C14.5116 8.30037 15.1705 8.43046 15.7853 8.68444C16.4001 8.93842 16.9588 9.31129 17.4292 9.78168C17.8995 10.2521 18.2724 10.8107 18.5264 11.4255C18.7804 12.0403 18.9105 12.6993 18.9092 13.3645C18.9079 14.0297 18.7753 14.6881 18.519 15.302C18.3858 15.6209 18.2206 15.9245 18.0264 16.2084C17.7279 16.6445 17.1133 16.6394 16.7396 16.2658V16.2658C16.3637 15.8898 16.3819 15.2828 16.6286 14.8118C16.6703 14.7322 16.7086 14.6506 16.7435 14.5674C16.9028 14.1866 16.9853 13.7781 16.9862 13.3654C16.9872 12.9527 16.9066 12.5438 16.7491 12.1623C16.5916 11.7808 16.3603 11.4342 16.0685 11.1423C15.7766 10.8505 15.43 10.6192 15.0485 10.4617C14.667 10.3042 14.2582 10.2236 13.8454 10.2246C13.4327 10.2256 13.0242 10.3081 12.6435 10.4674C12.2627 10.6267 11.9172 10.8596 11.6267 11.1528L5.83778 16.9418C5.2543 17.5303 4.92769 18.3259 4.92943 19.1546C4.93118 19.9833 5.26113 20.7776 5.84709 21.3636C6.43305 21.9497 7.22729 22.2797 8.056 22.2815C8.5617 22.2827 9.05509 22.1615 9.49663 21.9343C9.9678 21.6919 10.5718 21.6763 10.9465 22.051V22.051C11.3221 22.4266 11.3262 23.0448 10.8863 23.3427C10.6046 23.5335 10.3035 23.6957 9.98752 23.8263C9.37439 24.0799 8.7172 24.2098 8.0537 24.2086Z" fill="white"/>
<g id="Rectangle 7" filter="url(#filter0_d_107_1009)">
<rect x="12.6003" y="12.7201" width="3.84009" height="3.84009" rx="1.92004" fill="white"/>
</g>
</g>
</g>
<defs>
<filter id="filter0_d_107_1009" x="0.600342" y="0.720093" width="27.8401" height="27.8401" filterUnits="userSpaceOnUse" color-interpolation-filters="sRGB">
<feFlood flood-opacity="0" result="BackgroundImageFix"/>
<feColorMatrix in="SourceAlpha" type="matrix" values="0 0 0 0 0 0 0 0 0 0 0 0 0 0 0 0 0 0 127 0" result="hardAlpha"/>
<feMorphology radius="4" operator="dilate" in="SourceAlpha" result="effect1_dropShadow_107_1009"/>
<feOffset/>
<feGaussianBlur stdDeviation="4"/>
<feComposite in2="hardAlpha" operator="out"/>
<feColorMatrix type="matrix" values="0 0 0 0 0.78125 0 0 0 0 0.5625 0 0 0 0 1 0 0 0 1 0"/>
<feBlend mode="normal" in2="BackgroundImageFix" result="effect1_dropShadow_107_1009"/>
<feBlend mode="normal" in="SourceGraphic" in2="effect1_dropShadow_107_1009" result="shape"/>
</filter>
</defs>
</svg>

<svg xmlns="http://www.w3.org/2000/svg" width="30" height="30" fill="none"><path fill="#fff" d="M16.158 21.893a5.051 5.051 0 0 1-4.184-7.886c.297-.438.914-.435 1.289-.06.375.375.358.98.114 1.451a3.134 3.134 0 0 0 4.996 3.66l5.79-5.79a3.134 3.134 0 0 0-3.661-4.995c-.47.244-1.075.26-1.45-.114-.375-.375-.379-.992.06-1.29a5.053 5.053 0 0 1 6.408 7.757l-5.79 5.79a5.034 5.034 0 0 1-3.572 1.477Z"/><path fill="#fff" d="M8.054 24.209a5.052 5.052 0 0 1-3.574-8.625l5.79-5.789a5.053 5.053 0 0 1 7.756 6.413c-.298.437-.913.431-1.286.058-.376-.376-.358-.983-.111-1.454a3.132 3.132 0 0 0-5.002-3.659l-5.79 5.789a3.133 3.133 0 0 0 3.66 4.992c.47-.242 1.075-.258 1.45.117.375.376.38.994-.06 1.292a5.027 5.027 0 0 1-2.833.866Z"/><g filter="url(#a)"><rect width="3.84" height="3.84" x="12.6" y="12.72" fill="#fff" rx="1.92"/></g><defs><filter id="a" width="27.84" height="27.84" x=".6" y=".72" color-interpolation-filters="sRGB" filterUnits="userSpaceOnUse"><feFlood flood-opacity="0" result="BackgroundImageFix"/><feColorMatrix in="SourceAlpha" result="hardAlpha" values="0 0 0 0 0 0 0 0 0 0 0 0 0 0 0 0 0 0 127 0"/><feMorphology in="SourceAlpha" operator="dilate" radius="4" result="effect1_dropShadow_107_1009"/><feOffset/><feGaussianBlur stdDeviation="4"/><feComposite in2="hardAlpha" operator="out"/><feColorMatrix values="0 0 0 0 0.78125 0 0 0 0 0.5625 0 0 0 0 1 0 0 0 1 0"/><feBlend in2="BackgroundImageFix" result="effect1_dropShadow_107_1009"/><feBlend in="SourceGraphic" in2="effect1_dropShadow_107_1009" result="shape"/></filter></defs></svg>
